X: 1
T: Minor Setbacks
C: David A. Kaynor, May 2021
S: https://natunelist.net/minor-setbacks/ 2021-6-8
Z: 2021 John Chambers <jc:trillian.mit.edu>
N: Key changed (from Bb) to Gdor because all the E notes are natural.
M: 4/4
L: 1/8
K: Gdor
|: BA |\
"Gm"BGDC DGBA | BGDC D2Bc | "C"c2GD EGcd | egge "D7"^fddc | 
"Gm"BGDC DGBA | BGDC D2Bc | "C"c2GD EGcd | "D7"dcAD"Gm"G2 :| 
|: ga |\
"Gm"bggf g2ga | bggf d2dB | "C"c2GD EGcd | egge "D7"^fdfa | 
"Gm"bggf g2ga | bggf d2Bc | "C"c2GD EGcd | "D7"dcAD"Gm"G2 :| 
